svg/fluentui-system-icons/ic_fluent_print_32_filled.svg

<svg width="32" height="32" viewBox="0 0 32 32" fill="none" xmlns="http://www.w3.org/2000/svg">
<path d="M8 6.5V8H7C4.23858 8 2 10.2386 2 13V20.5C2 22.433 3.567 24 5.5 24H7V25.5C7 27.433 8.567 29 10.5 29H21.5C23.433 29 25 27.433 25 25.5V24H26.5C28.433 24 30 22.433 30 20.5V13C30 10.2386 27.7614 8 25 8H24V6.5C24 4.567 22.433 3 20.5 3H11.5C9.567 3 8 4.567 8 6.5ZM11.5 5H20.5C21.3284 5 22 5.67157 22 6.5V8H10V6.5C10 5.67157 10.6716 5 11.5 5ZM9 19.5C9 18.6716 9.67157 18 10.5 18H21.5C22.3284 18 23 18.6716 23 19.5V25.5C23 26.3284 22.3284 27 21.5 27H10.5C9.67157 27 9 26.3284 9 25.5V19.5Z" fill="#212121"/>
</svg>

<svg xmlns="http://www.w3.org/2000/svg" width="32" height="32"><path d="M8 6.5V8H7a5 5 0 0 0-5 5v7.5A3.5 3.5 0 0 0 5.5 24H7v1.5a3.5 3.5 0 0 0 3.5 3.5h11a3.5 3.5 0 0 0 3.5-3.5V24h1.5a3.5 3.5 0 0 0 3.5-3.5V13a5 5 0 0 0-5-5h-1V6.5A3.5 3.5 0 0 0 20.5 3h-9A3.5 3.5 0 0 0 8 6.5ZM11.5 5h9A1.5 1.5 0 0 1 22 6.5V8H10V6.5A1.5 1.5 0 0 1 11.5 5ZM9 19.5a1.5 1.5 0 0 1 1.5-1.5h11a1.5 1.5 0 0 1 1.5 1.5v6a1.5 1.5 0 0 1-1.5 1.5h-11A1.5 1.5 0 0 1 9 25.5v-6Z"/></svg>
